X:3545
T:Cronin's Hornpipe
R:hornpipe
I:speed 250
E:7
S:Keenan and Glackin
M:C|
K:G
BA|GABc dBde|gage dega|bage dBGB|cABGA2 BA|\
GABc dBde|gage dega|bage dBAB|G2G2G2:|*
fg|afd^c d2ga |bged e2 ga|(3bag (3agf gedB|(3cBA AG AcBA|\
GABc dBde|~g3 e dega|bage dBAB|G2G2G2:|**


